X:1
T:Similabo eum
T:Similabo eum
T:Giovanni Girolamo Kapsperger
T:Source : Libro primo di mottetti passeggiati a una voce---Roma---1612. Racolta del Sig.Francesco de Nobili Editor : André Vierendeels (25/10/15). 
T:Notes : Original clefs : C1, F4 Note values have been halved in 3-beat measures m 19 in BC : "mi" notated as "do" in original Ms 
C:Giovanni Girolamo Kapsperger
%%score 1 2
L:1/8
Q:1/4=80
M:4/4
K:C
V:1 treble nm="Soprano" snm="S"
V:2 bass nm="BC" snm="BC"
V:1
 d6 c2 | B6 B2 | A4 A4 | c6 E2 | ^F2 G2 A4 | G8 | e6 d2 | %7
w: Si- mi-|la- bo|e- um|vi- ro|sa- pi- en-|ti,|si- mi-|
 c/d/e/d/ c/B/A/^G/ A/E/^F/G/ A/4B/4c/4d/4e/A/ | B4 B4 | d6 ^F2 | %10
w: la- * * * * * * * * * * * * * * * * bo|e- um|vi- ro|
 ^G/^F/G/A/ G/A/B/c/ B/c/d/e/ c/d/e | E^F^GA Bc d/c/B/A/ | ^G2 A2 B4 | A8 | e6 A2 | B2 ^c2 d4- | %16
w: sa- * * * * * * * * * * * * * *||* pi- en-|ti,|qui ae-|di- fi- ca-|
 d^c/B/ c/A/B/c/ d/c/d/c/ c/B/c | d4 D/E/^F/^G/ A/G/A/G/ | ^G/G/^F/G/ AE F4 | E2 e4 A2 | %20
w: |vit do- * * * * * * *|* * * * * mum su-|am su- per|
 B/c/d/e/ d/c/B/A/ G/F/E/D/ E/^F/D/E/ | ^F/G/A/B/ c/d/G/A/ B/c/d/e/ d>e | B2 c4 B2 | c4 e4- | %24
w: pe- * * * * * * * * * * * * * * *||* * tram,|_ qui|
 e4 d4- | d4 c4- | c4 B4- | B4 A4- | A4 G4 | F3 G/A/ D>E F/E/E/D/ | E4 A4- | A4 ^G4 | A4 e2 f2 | %33
w: _ ae-|* di-|* fi-|* ca-|* vit|do- * * * * * * * *|mum su-||am su- *|
 e>c d2 c/d/c/d/ e/c/d/e/ | A/B/c/B/ c/A/B/c/ d/c/d/B/ c/d/G/A/ | %35
w: per _ pe- * * * * * * * *||
 B/A/B/G/ A/B/c/d/ e/d/c/B/ A/B/c/B/ | A/G/^F/G/ A/G/A/F/ G/A/D/E/ F/E/F/D/ | %37
w: ||
 E/4^F/4G/4A/4B/4c/4d/4B/4 c/A/B/G/ A4 | G8 |[M:3/4] B2 c2 d2 | G6 | F3 E D2 |[M:4/4] C4 e4- | %43
w: |tram,|Al- le- lu-|ia,|Al- le- lu-|ia, Al-|
 e4 d4- | d4 c4- | c4 B4- | B4 edec | dcdB cBcA | B4 d4- | d4 c4- | c4 B4 | A4 d/c/d/e/ d2 | %52
w: * le-|* lu-|* ia,|_ Al- * * *|le- * * * lu- * * *|ia, Al-|* le-|* lu-|ia, Al- * * * *|
 c/B/c/d/ c2 B>A A/4A/4A/G | A6 D/E/^F/4G/4A/4B/4 | c6 Bc | A/B/G/A/ ^F/G/E/F/ D/E/F/G/ A/B/c/B/ | %56
w: le- * * * * lu- * * * * *|ia, Al- * * * * *|* le- *||
 B/B/B/B/ B/B/A/G/ A4 | !fermata!G8 |] %58
w: * * * * * * * * lu-|ia.|
V:2
 G,,4 A,,4 | B,,4 G,,4 | D,8 | A,,4 E,4 | D,8 | G,,8 | A,,4 B,,4 | C,4 A,,4 | E,6 D,C, | B,,4 D,4 | %10
 E,8- | E,8- | E,8 | A,,8 | A,4 F,4 | G,4 F,4 | E,8 | D,8 | E,4 B,,4 | E,4 F,4 | G,8- | G,8 | G,8 | %23
 C,8 | G,8 | A,8 | E,8 | F,8 | C,8 | D,8 | A,,2 B,,2 C,2 D,2 | E,8 | A,,8 | B,,4 A,,4- | %34
 A,,4 B,,4- | B,,4 C,4 | D,8 | D,8 | G,,8 |[M:3/4] G,2 E,2 D,2 | C,3 D, E,2 | F,2 C,2 G,2 | %42
[M:4/4] C,8 | G,8 | A,8 | E,8 | D,4 C,4 | G,4 A,4 | E,4 B,,4 | C,8 | G,,8 | D,4 B,,4 | C,4 G,,4 | %53
 D,8 | A,,4 B,,4 | C,4 B,,4 | D,8 | !fermata!G,,8 |] %58

